X:1
T:Jesus, Saviour, Pilot Me
M:3/4
L:1/8
K:G
 B3/2 A/2| G3 F(2A3.99999962500005/5.99999925000009A3.99999962500005/5.99999925000009G3.99999962500005/5.99999925000009 E3.99999962500005/5.99999925000009|\
 D4 c3/2 B/2| B3 AG F| G4 A3/2 A/2| A3 DE D| G4 A3/2 A/2| A3 DE D|\
 G4 B3/2 A/2| G3 F(2A3.99999962500005/5.99999925000009A3.99999962500005/5.99999925000009G3.99999962500005/5.99999925000009 E3.99999962500005/5.99999925000009|\
 D4 c3/2 B/2| B3 AG F| G4||
